static/images/blog/post_images/evervault-logo.svg

<svg fill="none" height="48" viewBox="0 0 198 48" width="198" xmlns="http://www.w3.org/2000/svg"><path d="m58.249 15.7406c7.2605 0 8.6672 5.7648 8.6672 8.8514 0 1.2677 0 2.7878-1.6208 2.8987l-.1943.0064h-13.2504c0 4.4938 2.5865 7.3989 6.8521 7.3989 2.6319 0 4.1747-.9986 5.4453-1.9518.2723-.1816.4538-.2724.8168-.2724.7261 0 1.316.5901 1.316 1.3164 0 .4993-.2269.7716-.4992 1.044-.6806.6809-3.0403 2.5419-7.0789 2.5419-6.0353 0-9.8017-3.3136-9.8017-10.9394 0-6.9904 3.4487-10.8941 9.3479-10.8941zm36.4839 0c7.2601 0 8.6671 5.7648 8.6671 8.8514 0 1.2677 0 2.7878-1.621 2.8987l-.194.0064h-13.2504c0 4.4938 2.5865 7.3989 6.8521 7.3989 2.6319 0 4.1747-.9986 5.4453-1.9518.272-.1816.454-.2724.817-.2724.726 0 1.316.5901 1.316 1.3164 0 .4993-.227.7716-.499 1.044-.681.6809-3.0407 2.5419-7.0793 2.5419-6.0353 0-9.8017-3.3136-9.8017-10.9394 0-6.9904 3.4487-10.8941 9.3479-10.8941zm49.4161 0c5.152 0 8.044 2.9567 8.165 7.4232l.004.2934v12.4828c0 .7717-.636 1.4072-1.407 1.4072-.723 0-1.327-.5586-1.4-1.2642l-.007-.143v-1.6341c-1.134 2.1334-3.766 3.2682-6.489 3.2682-4.81 0-7.85-2.3149-7.85-6.491 0-3.9037 2.903-6.2901 7.61-6.3966l.331-.0037h6.398v-1.2256c0-3.0866-2.042-4.9931-5.355-4.9931-2.405 0-3.857.7263-5.263 2.315-.454.4993-.772.6355-1.18.6355-.726 0-1.316-.5901-1.316-1.3164 0-.3177.091-.5447.227-.7716 1.27-1.9973 3.721-3.586 7.532-3.586zm26.365.2724c.723 0 1.327.5585 1.4 1.3015l.007.151v11.8473c0 4.3122-1.407 8.2613-8.44 8.2613-6.864 0-8.387-3.8093-8.439-8.0306l-.002-.2307v-11.8473c0-.817.636-1.4525 1.452-1.4525.724 0 1.367.5585 1.445 1.3015l.007.151v11.8473c0 2.9505.953 5.4924 5.537 5.4924 4.479 0 5.49-2.4277 5.534-5.2919l.002-.2005v-11.8473c0-.817.68-1.4525 1.497-1.4525zm-86.6265 0c.8168 0 1.4521.6355 1.4521 1.4525 0 .2648-.063.435-.1103.5632l-.0258.0723-7.7142 18.3383c-.2723.5901-.7715.9079-1.3614.9079-.5363 0-.9976-.2626-1.2816-.7537l-.0797-.1542-7.7143-18.3383c-.0454-.1362-.1361-.3177-.1361-.6355 0-.817.6353-1.4525 1.4521-1.4525.754 0 1.1213.4254 1.3161.8479l.0452.1053 6.3983 15.6602 6.3983-15.6602c.1815-.4539.5445-.9532 1.3613-.9532zm30.9475-.1816c.772 0 1.407.6355 1.407 1.4071 0 .7717-.635 1.4072-1.407 1.4072-4.077 0-6.207 2.7715-6.304 6.7919l-.003.2892v10.1678c0 .8171-.636 1.4526-1.452 1.4526-.766 0-1.372-.5586-1.445-1.3016l-.007-.151v-18.4291c0-.817.635-1.4525 1.452-1.4525.765 0 1.372.5585 1.444 1.3015l.008.151v1.9973c.907-2.0881 3.176-3.6314 6.307-3.6314zm19.315.1816c.817 0 1.452.6355 1.452 1.4525 0 .2648-.063.435-.11.5632l-.026.0723-7.714 18.3383c-.272.5901-.771.9079-1.361.9079-.537 0-.998-.2626-1.282-.7537l-.08-.1542-7.714-18.3383c-.045-.1362-.136-.3177-.136-.6355 0-.817.635-1.4525 1.452-1.4525.754 0 1.121.4254 1.316.8479l.045.1053 6.399 15.6602 6.398-15.6602c.181-.4539.544-.9532 1.361-.9532zm42.399-11.34802c.766 0 1.372.59843 1.445 1.30906l.007.14348v25.91878c0 1.8157.59 2.5874 1.816 2.5874.726 0 1.361.5901 1.361 1.3617 0 .7717-.635 1.3618-1.361 1.3618-2.949 0-4.617-1.7073-4.715-4.9978l-.005-.3131v-25.91878c0-.77166.681-1.45254 1.452-1.45254zm8.804 5.49242c.765 0 1.372.5984 1.444 1.3091l.008.1434v4.7662h2.949c.772 0 1.362.5901 1.362 1.3618 0 .7202-.514 1.2822-1.21 1.354l-.152.0077h-2.949v12.5282c0 1.9519 1.089 2.9959 2.632 2.9959.771 0 1.406.5901 1.406 1.3617 0 .7717-.635 1.3618-1.406 1.3618-3.486 0-5.427-2.274-5.532-5.4454l-.004-.274v-12.5282h-1.77c-.772 0-1.361-.5901-1.361-1.3617 0-.7203.513-1.2823 1.209-1.3541l.152-.0077h1.77v-4.7662c0-.7716.68-1.4525 1.452-1.4525zm-35.849 17.0674h-6.398c-2.95 0-4.992 1.2256-4.992 3.8583 0 2.3604 1.634 3.8583 5.173 3.8583 3.095 0 6.061-1.853 6.211-5.5171l.006-.2931zm-91.255-8.8515c-3.8467 0-6.0132 2.4133-6.3736 6.2741l-.0247.3078h12.2067c0-3.2682-1.1345-6.5819-5.8084-6.5819zm36.4839 0c-3.8467 0-6.0132 2.4133-6.3736 6.2741l-.0247.3078h12.2064c0-3.2682-1.1342-6.5819-5.8081-6.5819z" fill="#63e"/><path d="m32.4625 39.2328c-2.1895 1.6777-4.9836 3.5172-8.4625 3.5172-10.8 0-15-11.25-15-17.25v-11.691c0-.1894.107-.3625.27639-.4472l14.50001-7.25c.1408-.07038.3064-.07038.4472 0l14.5 7.25c.1694.0847.2764.2578.2764.4472v11.691c0 2.4802-.7176 5.7293-2.3225 8.6878" stroke="#63e" stroke-linecap="round" stroke-width="3"/><circle cx="16.5" cy="19.5" fill="#63e" r="2.25"/><circle cx="31.5" cy="19.5" fill="#63e" r="2.25"/><path d="m16.5 31.5 5.6336 4.9294c.2039.1784.5129.1619.6966-.0372l8.6698-9.3922" stroke="#63e" stroke-linecap="round" stroke-width="3"/></svg>

<svg width="198" height="48" viewBox="0 0 198 48" fill="none" xmlns="http://www.w3.org/2000/svg">
<path d="M58.249 15.7406C65.5095 15.7406 66.9162 21.5054 66.9162 24.592C66.9162 25.8597 66.9162 27.3798 65.2954 27.4907L65.1011 27.4971H51.8507C51.8507 31.9909 54.4372 34.896 58.7028 34.896C61.3347 34.896 62.8775 33.8974 64.1481 32.9442C64.4204 32.7626 64.6019 32.6718 64.9649 32.6718C65.691 32.6718 66.2809 33.2619 66.2809 33.9882C66.2809 34.4875 66.054 34.7598 65.7817 35.0322C65.1011 35.7131 62.7414 37.5741 58.7028 37.5741C52.6675 37.5741 48.9011 34.2605 48.9011 26.6347C48.9011 19.6443 52.3498 15.7406 58.249 15.7406ZM94.7329 15.7406C101.993 15.7406 103.4 21.5054 103.4 24.592C103.4 25.8597 103.4 27.3798 101.779 27.4907L101.585 27.4971H88.3346C88.3346 31.9909 90.9211 34.896 95.1867 34.896C97.8186 34.896 99.3614 33.8974 100.632 32.9442C100.904 32.7626 101.086 32.6718 101.449 32.6718C102.175 32.6718 102.765 33.2619 102.765 33.9882C102.765 34.4875 102.538 34.7598 102.266 35.0322C101.585 35.7131 99.2253 37.5741 95.1867 37.5741C89.1514 37.5741 85.385 34.2605 85.385 26.6347C85.385 19.6443 88.8337 15.7406 94.7329 15.7406ZM144.149 15.7406C149.301 15.7406 152.193 18.6973 152.314 23.1638L152.318 23.4572V35.94C152.318 36.7117 151.682 37.3472 150.911 37.3472C150.188 37.3472 149.584 36.7886 149.511 36.083L149.504 35.94V34.3059C148.37 36.4393 145.738 37.5741 143.015 37.5741C138.205 37.5741 135.165 35.2592 135.165 31.0831C135.165 27.1794 138.068 24.793 142.775 24.6865L143.106 24.6828H149.504V23.4572C149.504 20.3706 147.462 18.4641 144.149 18.4641C141.744 18.4641 140.292 19.1904 138.886 20.7791C138.432 21.2784 138.114 21.4146 137.706 21.4146C136.98 21.4146 136.39 20.8245 136.39 20.0982C136.39 19.7805 136.481 19.5535 136.617 19.3266C137.887 17.3293 140.338 15.7406 144.149 15.7406ZM170.514 16.013C171.237 16.013 171.841 16.5715 171.914 17.3145L171.921 17.4655V29.3128C171.921 33.625 170.514 37.5741 163.481 37.5741C156.617 37.5741 155.094 33.7648 155.042 29.5435L155.04 29.3128V17.4655C155.04 16.6485 155.676 16.013 156.492 16.013C157.216 16.013 157.859 16.5715 157.937 17.3145L157.944 17.4655V29.3128C157.944 32.2633 158.897 34.8052 163.481 34.8052C167.96 34.8052 168.971 32.3775 169.015 29.5133L169.017 29.3128V17.4655C169.017 16.6485 169.697 16.013 170.514 16.013ZM83.8875 16.013C84.7043 16.013 85.3396 16.6485 85.3396 17.4655C85.3396 17.7303 85.2766 17.9005 85.2293 18.0287L85.2035 18.101L77.4893 36.4393C77.217 37.0294 76.7178 37.3472 76.1279 37.3472C75.5916 37.3472 75.1303 37.0846 74.8463 36.5935L74.7666 36.4393L67.0523 18.101C67.0069 17.9648 66.9162 17.7833 66.9162 17.4655C66.9162 16.6485 67.5515 16.013 68.3683 16.013C69.1223 16.013 69.4896 16.4384 69.6844 16.8609L69.7296 16.9662L76.1279 32.6264L82.5262 16.9662C82.7077 16.5123 83.0707 16.013 83.8875 16.013ZM114.835 15.8314C115.607 15.8314 116.242 16.4669 116.242 17.2385C116.242 18.0102 115.607 18.6457 114.835 18.6457C110.758 18.6457 108.628 21.4172 108.531 25.4376L108.528 25.7268V35.8946C108.528 36.7117 107.892 37.3472 107.076 37.3472C106.31 37.3472 105.704 36.7886 105.631 36.0456L105.624 35.8946V17.4655C105.624 16.6485 106.259 16.013 107.076 16.013C107.841 16.013 108.448 16.5715 108.52 17.3145L108.528 17.4655V19.4628C109.435 17.3747 111.704 15.8314 114.835 15.8314ZM134.15 16.013C134.967 16.013 135.602 16.6485 135.602 17.4655C135.602 17.7303 135.539 17.9005 135.492 18.0287L135.466 18.101L127.752 36.4393C127.48 37.0294 126.981 37.3472 126.391 37.3472C125.854 37.3472 125.393 37.0846 125.109 36.5935L125.029 36.4393L117.315 18.101C117.27 17.9648 117.179 17.7833 117.179 17.4655C117.179 16.6485 117.814 16.013 118.631 16.013C119.385 16.013 119.752 16.4384 119.947 16.8609L119.992 16.9662L126.391 32.6264L132.789 16.9662C132.97 16.5123 133.333 16.013 134.15 16.013ZM176.549 4.66498C177.315 4.66498 177.921 5.26341 177.994 5.97404L178.001 6.11752V32.0363C178.001 33.852 178.591 34.6237 179.817 34.6237C180.543 34.6237 181.178 35.2138 181.178 35.9854C181.178 36.7571 180.543 37.3472 179.817 37.3472C176.868 37.3472 175.2 35.6399 175.102 32.3494L175.097 32.0363V6.11752C175.097 5.34586 175.778 4.66498 176.549 4.66498ZM185.353 10.1574C186.118 10.1574 186.725 10.7558 186.797 11.4665L186.805 11.6099V16.3761H189.754C190.526 16.3761 191.116 16.9662 191.116 17.7379C191.116 18.4581 190.602 19.0201 189.906 19.0919L189.754 19.0996H186.805V31.6278C186.805 33.5797 187.894 34.6237 189.437 34.6237C190.208 34.6237 190.843 35.2138 190.843 35.9854C190.843 36.7571 190.208 37.3472 189.437 37.3472C185.951 37.3472 184.01 35.0732 183.905 31.9018L183.901 31.6278V19.0996H182.131C181.359 19.0996 180.77 18.5095 180.77 17.7379C180.77 17.0176 181.283 16.4556 181.979 16.3838L182.131 16.3761H183.901V11.6099C183.901 10.8383 184.581 10.1574 185.353 10.1574ZM149.504 27.2248H143.106C140.156 27.2248 138.114 28.4504 138.114 31.0831C138.114 33.4435 139.748 34.9414 143.287 34.9414C146.382 34.9414 149.348 33.0884 149.498 29.4243L149.504 29.1312V27.2248ZM58.249 18.3733C54.4023 18.3733 52.2358 20.7866 51.8754 24.6474L51.8507 24.9552H64.0574C64.0574 21.687 62.9229 18.3733 58.249 18.3733ZM94.7329 18.3733C90.8862 18.3733 88.7197 20.7866 88.3593 24.6474L88.3346 24.9552H100.541C100.541 21.687 99.4068 18.3733 94.7329 18.3733Z" fill="#6633EE"/>
<path d="M32.4625 39.2328C30.273 40.9105 27.4789 42.75 24 42.75C13.2 42.75 9 31.5 9 25.5V13.809C9 13.6196 9.107 13.4465 9.27639 13.3618L23.7764 6.1118C23.9172 6.04142 24.0828 6.04142 24.2236 6.1118L38.7236 13.3618C38.893 13.4465 39 13.6196 39 13.809V25.5C39 27.9802 38.2824 31.2293 36.6775 34.1878" stroke="#6633EE" stroke-width="3" stroke-linecap="round"/>
<circle cx="16.5" cy="19.5" r="2.25" fill="#6633EE"/>
<circle cx="31.5" cy="19.5" r="2.25" fill="#6633EE"/>
<path d="M16.5 31.5L22.1336 36.4294C22.3375 36.6078 22.6465 36.5913 22.8302 36.3922L31.5 27" stroke="#6633EE" stroke-width="3" stroke-linecap="round"/>
</svg>
